source/img/icon-feature-flower.svg

<svg height="38" viewBox="0 0 32 38" width="32" xmlns="http://www.w3.org/2000/svg"><path d="m16 37.65c8.827 0 15.986-7.159 15.986-15.986-8.828 0-15.986 7.158-15.986 15.986zm-11.359-20.87c0 2.451 1.989 4.441 4.44 4.441.932 0 1.803-.294 2.513-.782l-.036.337c0 2.451 1.99 4.441 4.441 4.441s4.44-1.99 4.44-4.441l-.036-.337c.719.497 1.582.782 2.514.782 2.451 0 4.44-1.99 4.44-4.441 0-1.768-1.038-3.286-2.54-3.997 1.492-.71 2.54-2.229 2.54-3.997 0-2.451-1.989-4.44-4.44-4.44-.932 0-1.803.293-2.514.781l.037-.337c0-2.451-1.989-4.44-4.44-4.44s-4.441 1.99-4.441 4.44l.036.337c-.719-.497-1.581-.781-2.513-.781-2.451 0-4.44 1.99-4.44 4.44 0 1.768 1.039 3.286 2.54 3.997-1.502.711-2.541 2.229-2.541 3.997zm11.359-8.437c2.451 0 4.44 1.989 4.44 4.44s-1.989 4.44-4.44 4.44-4.441-1.99-4.441-4.44c0-2.451 1.99-4.44 4.441-4.44zm-15.986 13.321c0 8.827 7.158 15.986 15.986 15.986 0-8.828-7.158-15.986-15.986-15.986z" fill="#63d1bb" fill-rule="evenodd" transform=""/></svg>

<?xml version="1.0" encoding="UTF-8"?>
<svg width="32px" height="38px" viewBox="0 0 32 38" version="1.1" xmlns="http://www.w3.org/2000/svg" xmlns:xlink="http://www.w3.org/1999/xlink">
    <!-- Generator: Sketch 52.2 (67145) - http://www.bohemiancoding.com/sketch -->
    <title>icon-feature-flower</title>
    <desc>Created with Sketch.</desc>
    <g id="Mishka-Mobile" stroke="none" stroke-width="1" fill="none" fill-rule="evenodd">
        <g id="Mishka-Index-Mobile" transform="translate(-38.000000, -1799.000000)" fill="#63D1BB">
            <g id="about" transform="translate(0.000000, 1736.000000)">
                <g id="icon-feature-flower" transform="translate(38.000000, 63.000000)">
                    <path d="M16,37.65 C24.827,37.65 31.986,30.491 31.986,21.664 C23.158,21.664 16,28.822 16,37.65 Z M4.641,16.78 C4.641,19.231 6.63,21.221 9.081,21.221 C10.013,21.221 10.884,20.927 11.594,20.439 L11.558,20.776 C11.558,23.227 13.548,25.217 15.999,25.217 C18.45,25.217 20.439,23.227 20.439,20.776 L20.403,20.439 C21.122,20.936 21.985,21.221 22.917,21.221 C25.368,21.221 27.357,19.231 27.357,16.78 C27.357,15.012 26.319,13.494 24.817,12.783 C26.309,12.073 27.357,10.554 27.357,8.786 C27.357,6.335 25.368,4.346 22.917,4.346 C21.985,4.346 21.114,4.639 20.403,5.127 L20.44,4.79 C20.44,2.339 18.451,0.35 16,0.35 C13.549,0.35 11.559,2.34 11.559,4.79 L11.595,5.127 C10.876,4.63 10.014,4.346 9.082,4.346 C6.631,4.346 4.642,6.336 4.642,8.786 C4.642,10.554 5.681,12.072 7.182,12.783 C5.68,13.494 4.641,15.012 4.641,16.78 Z M16,8.343 C18.451,8.343 20.44,10.332 20.44,12.783 C20.44,15.234 18.451,17.223 16,17.223 C13.549,17.223 11.559,15.233 11.559,12.783 C11.559,10.332 13.549,8.343 16,8.343 Z M0.014,21.664 C0.014,30.491 7.172,37.65 16,37.65 C16,28.822 8.842,21.664 0.014,21.664 Z" id="Shape"></path>
                </g>
            </g>
        </g>
    </g>
</svg>
